; generated by Slic3r 0.9.7 on 2012-12-26 at 08:33:22

; layer_height = 0.25
; perimeters = 2
; top_solid_layers = 3
; bottom_solid_layers = 3
; fill_density = .15
; perimeter_speed = 50
; infill_speed = 100
; travel_speed = 150
; scale = 1
; nozzle_diameter = .35
; filament_diameter = 1.75
; extrusion_multiplier = 1
; perimeters extrusion width = 0.39mm
; infill extrusion width = 0.39mm
; first layer extrusion width = 0.40mm

M190 S110 ; wait for bed temperature to be reached
M104 S215 ; set temperature
G28 ; home all axes
M109 S215 ; wait for temperature to be reached
G90 ; use absolute coordinates
G21 ; set units to millimeters
G92 E0
M82 ; use absolute distances for extrusion
G1 F6000.000 E-1.00000
G92 E0
G1 Z0.200 F9000.000
G1 X53.580 Y64.920
G1 F6000.000 E1.00000
G1 X54.020 Y64.560 F1500.000 E1.01840
G1 X54.630 Y64.100 E1.04313
G1 X55.260 Y63.670 E1.06782
G1 X55.920 Y63.280 E1.09263
G1 X56.450 Y63.000 E1.11204
G1 X57.140 Y62.670 E1.13679
G1 X57.760 Y62.410 E1.15855
G1 X58.480 Y62.150 E1.18333
G1 X59.180 Y61.940 E1.20699
G1 X60.460 Y61.650 E1.24947
G1 X61.220 Y61.530 E1.27437
G1 X62.020 Y61.460 E1.30036
G1 X63.050 Y61.420 E1.33373
G1 X142.940 Y61.420 E3.91960
G1 X143.970 Y61.460 E3.95297
G1 X144.770 Y61.530 E3.97896
G1 X145.530 Y61.650 E4.00386
G1 X146.810 Y61.940 E4.04635
G1 X147.510 Y62.150 E4.07000
G1 X148.230 Y62.410 E4.09478
G1 X148.850 Y62.670 E4.11654
G1 X149.540 Y63.000 E4.14130
G1 X150.070 Y63.280 E4.16070
G1 X150.730 Y63.670 E4.18551
G1 X151.360 Y64.100 E4.21020
G1 X151.970 Y64.560 E4.23493
G1 X152.410 Y64.920 E4.25333
G1 X152.980 Y65.430 E4.27809
G1 X153.510 Y65.960 E4.30235
G1 X154.020 Y66.530 E4.32711
G1 X154.380 Y66.970 E4.34551
G1 X154.840 Y67.580 E4.37024
G1 X155.270 Y68.210 E4.39492
G1 X155.660 Y68.870 E4.41974
G1 X155.940 Y69.400 E4.43914
G1 X156.270 Y70.090 E4.46390
G1 X156.530 Y70.710 E4.48566
G1 X156.790 Y71.430 E4.51044
G1 X157.000 Y72.130 E4.53409
G1 X157.290 Y73.410 E4.57657
G1 X157.410 Y74.170 E4.60148
G1 X157.480 Y74.970 E4.62747
G1 X157.520 Y76.000 E4.66083
G1 X157.520 Y140.050 E6.73400
G1 X157.500 Y140.600 E6.75181
G1 X157.380 Y141.420 E6.77864
G1 X157.250 Y141.950 E6.79630
G1 X156.970 Y142.730 E6.82313
G1 X156.730 Y143.230 E6.84108
G1 X156.450 Y143.710 E6.85906
G1 X156.290 Y143.940 E6.86813
G1 X155.960 Y144.370 E6.88568
G1 X155.400 Y144.980 E6.91248
G1 X154.760 Y145.510 E6.93938
G1 X154.540 Y145.670 E6.94818
G1 X154.070 Y145.960 E6.96606
G1 X153.320 Y146.320 E6.99299
G1 X152.540 Y146.590 E7.01970
G1 X73.550 Y168.340 E9.67160
G1 X73.200 Y168.420 E9.68322
G1 X72.480 Y168.540 E9.70685
G1 X71.750 Y168.580 E9.73051
G1 X49.250 Y168.580 E10.45879
G1 X48.700 Y168.560 E10.47660
G1 X48.160 Y168.490 E10.49423
G1 X47.630 Y168.380 E10.51175
G1 X47.100 Y168.230 E10.52958
G1 X46.590 Y168.040 E10.54719
G1 X45.860 Y167.670 E10.57368
G1 X45.400 Y167.380 E10.59128
G1 X44.960 Y167.050 E10.60909
G1 X44.360 Y166.500 E10.63543
G1 X43.830 Y165.870 E10.66208
G1 X43.380 Y165.190 E10.68847
G1 X43.010 Y164.460 E10.71496
G1 X42.820 Y163.950 E10.73258
G1 X42.610 Y163.160 E10.75904
G1 X42.490 Y162.350 E10.78554
G1 X42.470 Y161.800 E10.80336
G1 X42.470 Y92.820 E13.03610
G1 X42.560 Y91.710 E13.07214
G1 X42.790 Y90.670 E13.10662
G1 X42.890 Y90.340 E13.11778
G1 X49.200 Y71.430 E13.76303
G1 X49.460 Y70.710 E13.78781
G1 X49.720 Y70.090 E13.80957
G1 X50.050 Y69.400 E13.83433
G1 X50.330 Y68.870 E13.85373
G1 X50.720 Y68.210 E13.87855
G1 X51.150 Y67.580 E13.90323
G1 X51.610 Y66.970 E13.92796
G1 X51.970 Y66.530 E13.94637
G1 X52.480 Y65.960 E13.97112
G1 X53.010 Y65.430 E13.99538
G1 X53.536 Y64.959 E14.01825
G1 X53.580 Y64.920 E14.02014
G1 X53.840 Y65.210 F9000.000
G1 X54.250 Y64.870 F1500.000 E14.03738
G1 X54.860 Y64.410 E14.06211
G1 X55.460 Y64.010 E14.08545
G1 X56.120 Y63.620 E14.11026
G1 X56.610 Y63.360 E14.12822
G1 X57.300 Y63.030 E14.15297
G1 X57.890 Y62.780 E14.17372
G1 X58.610 Y62.520 E14.19849
G1 X59.270 Y62.320 E14.22082
G1 X60.010 Y62.140 E14.24547
G1 X60.520 Y62.040 E14.26229
G1 X61.280 Y61.920 E14.28719
G1 X62.030 Y61.850 E14.31157
G1 X63.050 Y61.810 E14.34461
G1 X142.940 Y61.810 E16.93049
G1 X143.960 Y61.850 E16.96353
G1 X144.710 Y61.920 E16.98791
G1 X145.470 Y62.040 E17.01281
G1 X145.980 Y62.140 E17.02964
G1 X146.720 Y62.320 E17.05429
G1 X147.380 Y62.520 E17.07661
G1 X148.100 Y62.780 E17.10139
G1 X148.690 Y63.030 E17.12213
G1 X149.380 Y63.360 E17.14688
G1 X149.870 Y63.620 E17.16484
G1 X150.530 Y64.010 E17.18965
G1 X151.130 Y64.410 E17.21299
G1 X151.740 Y64.870 E17.23772
G1 X152.720 Y65.720 E17.27971
G1 X153.220 Y66.220 E17.30260
G1 X154.070 Y67.200 E17.34459
G1 X154.530 Y67.810 E17.36932
G1 X154.930 Y68.410 E17.39266
G1 X155.320 Y69.070 E17.41747
G1 X155.580 Y69.560 E17.43543
G1 X155.910 Y70.250 E17.46019
G1 X156.160 Y70.840 E17.48093
G1 X156.420 Y71.560 E17.50570
G1 X156.620 Y72.220 E17.52803
G1 X156.800 Y72.960 E17.55268
G1 X156.900 Y73.470 E17.56950
G1 X157.020 Y74.230 E17.59440
G1 X157.090 Y74.980 E17.61879
G1 X157.130 Y76.000 E17.65183
G1 X157.130 Y140.050 E19.72499
G1 X157.110 Y140.590 E19.74248
G1 X156.990 Y141.380 E19.76835
G1 X156.860 Y141.900 E19.78570
G1 X156.680 Y142.410 E19.80320
G1 X156.570 Y142.660 E19.81204
G1 X156.460 Y142.900 E19.82059
G1 X156.200 Y143.370 E19.83797
G1 X155.740 Y144.030 E19.86401
G1 X155.390 Y144.430 E19.88122
G1 X155.000 Y144.810 E19.89884
G1 X154.370 Y145.310 E19.92487
G1 X153.920 Y145.590 E19.94203
G1 X153.200 Y145.950 E19.96808
G1 X152.950 Y146.050 E19.97680
G1 X152.440 Y146.210 E19.99410
G1 X73.450 Y167.960 E22.64600
G1 X72.780 Y168.110 E22.66822
G1 X72.090 Y168.180 E22.69067
G1 X71.750 Y168.190 E22.70168
G1 X49.250 Y168.190 E23.42996
G1 X48.720 Y168.170 E23.44712
G1 X48.200 Y168.100 E23.46411
G1 X47.680 Y167.990 E23.48131
G1 X47.180 Y167.840 E23.49821
G1 X46.680 Y167.650 E23.51552
G1 X45.980 Y167.290 E23.54100
G1 X45.540 Y167.000 E23.55806
G1 X45.120 Y166.680 E23.57515
G1 X44.730 Y166.320 E23.59233
G1 X44.370 Y165.930 E23.60951
G1 X43.900 Y165.290 E23.63521
G1 X43.510 Y164.610 E23.66058
G1 X43.300 Y164.120 E23.67784
G1 X43.060 Y163.370 E23.70332
G1 X42.910 Y162.590 E23.72903
G1 X42.880 Y162.330 E23.73751
G1 X42.860 Y161.800 E23.75467
G1 X42.860 Y92.820 E25.98741
G1 X42.980 Y91.590 E26.02741
G1 X43.170 Y90.790 E26.05403
G1 X43.320 Y90.290 E26.07092
G1 X49.570 Y71.560 E26.71004
G1 X49.830 Y70.840 E26.73482
G1 X50.080 Y70.250 E26.75556
G1 X50.410 Y69.560 E26.78031
G1 X50.670 Y69.070 E26.79827
G1 X51.060 Y68.410 E26.82308
G1 X51.460 Y67.810 E26.84642
G1 X51.920 Y67.200 E26.87115
G1 X52.770 Y66.220 E26.91314
G1 X53.270 Y65.720 E26.93603
G1 X53.796 Y65.249 E26.95890
G1 X53.840 Y65.210 E26.96079
G1 F6000.000 E25.96079
G92 E0
G1 X52.680 Y152.338 F9000.000
G1 F6000.000 E1.00000
G1 X52.896 Y152.261 F1500.000 E1.00743
G1 X53.346 Y152.171 E1.02228
G1 X53.804 Y152.171 E1.03713
G1 X54.254 Y152.261 E1.05198
G1 X54.678 Y152.436 E1.06682
G1 X55.059 Y152.691 E1.08167
G1 X55.384 Y153.016 E1.09652
G1 X55.639 Y153.397 E1.11137
G1 X55.814 Y153.821 E1.12622
G1 X55.904 Y154.271 E1.14106
G1 X55.904 Y154.729 E1.15591
G1 X55.814 Y155.179 E1.17076
G1 X55.639 Y155.603 E1.18560
G1 X55.384 Y155.984 E1.20045
G1 X55.059 Y156.309 E1.21530
G1 X54.678 Y156.564 E1.23015
G1 X54.254 Y156.739 E1.24500
G1 X53.804 Y156.829 E1.25984
G1 X53.346 Y156.829 E1.27469
G1 X52.896 Y156.739 E1.28954
G1 X52.472 Y156.564 E1.30439
G1 X52.091 Y156.309 E1.31924
G1 X51.766 Y155.984 E1.33408
G1 X51.511 Y155.603 E1.34893
G1 X51.336 Y155.179 E1.36378
G1 X51.246 Y154.729 E1.37863
G1 X51.246 Y154.271 E1.39347
G1 X51.336 Y153.821 E1.40832
G1 X51.511 Y153.397 E1.42317
G1 X51.766 Y153.016 E1.43802
G1 X52.091 Y152.691 E1.45286
G1 X52.275 Y152.554 E1.46030
G1 X52.627 Y152.363 E1.47326
G1 X52.680 Y152.338 E1.47515
G1 X52.829 Y152.698 F9000.000
G1 X53.009 Y152.634 F1500.000 E1.48134
G1 X53.384 Y152.559 E1.49372
G1 X53.766 Y152.559 E1.50609
G1 X54.141 Y152.634 E1.51847
G1 X54.494 Y152.780 E1.53084
G1 X54.812 Y152.992 E1.54322
G1 X55.083 Y153.263 E1.55559
G1 X55.295 Y153.581 E1.56796
G1 X55.441 Y153.934 E1.58034
G1 X55.516 Y154.309 E1.59271
G1 X55.516 Y154.691 E1.60509
G1 X55.441 Y155.066 E1.61746
G1 X55.295 Y155.419 E1.62984
G1 X55.083 Y155.737 E1.64221
G1 X54.812 Y156.008 E1.65459
G1 X54.494 Y156.220 E1.66696
G1 X54.141 Y156.366 E1.67934
G1 X53.766 Y156.441 E1.69171
G1 X53.384 Y156.441 E1.70409
G1 X53.009 Y156.366 E1.71646
G1 X52.656 Y156.220 E1.72884
G1 X52.338 Y156.008 E1.74121
G1 X52.067 Y155.737 E1.75359
G1 X51.855 Y155.419 E1.76596
G1 X51.709 Y155.066 E1.77834
G1 X51.634 Y154.691 E1.79071
G1 X51.634 Y154.309 E1.80308
G1 X51.709 Y153.934 E1.81546
G1 X51.855 Y153.581 E1.82783
G1 X52.067 Y153.263 E1.84021
G1 X52.338 Y152.992 E1.85258
G1 X52.492 Y152.878 E1.85878
G1 X52.776 Y152.723 E1.86927
G1 X52.829 Y152.698 E1.87116
G1 F6000.000 E0.87116
G92 E0
G1 X66.246 Y154.271 F9000.000
G1 F6000.000 E1.00000
G1 X66.336 Y153.821 F1500.000 E1.01485
G1 X66.511 Y153.397 E1.02969
G1 X66.766 Y153.016 E1.04454
G1 X67.091 Y152.691 E1.05939
G1 X67.472 Y152.436 E1.07424
G1 X67.896 Y152.261 E1.08909
G1 X68.346 Y152.171 E1.10393
G1 X68.804 Y152.171 E1.11878
G1 X69.254 Y152.261 E1.13363
G1 X69.678 Y152.436 E1.14848
G1 X69.875 Y152.554 E1.15591
G1 X70.230 Y152.845 E1.17076
G1 X70.521 Y153.200 E1.18560
G1 X70.737 Y153.605 E1.20045
G1 X70.870 Y154.043 E1.21530
G1 X70.915 Y154.500 E1.23015
G1 X70.870 Y154.956 E1.24500
G1 X70.737 Y155.395 E1.25984
G1 X70.521 Y155.800 E1.27469
G1 X70.230 Y156.155 E1.28954
G1 X69.875 Y156.446 E1.30439
G1 X69.470 Y156.662 E1.31924
G1 X69.032 Y156.795 E1.33408
G1 X68.575 Y156.840 E1.34893
G1 X68.118 Y156.795 E1.36378
G1 X67.680 Y156.662 E1.37862
G1 X67.275 Y156.446 E1.39347
G1 X66.920 Y156.155 E1.40832
G1 X66.629 Y155.800 E1.42317
G1 X66.413 Y155.395 E1.43802
G1 X66.280 Y154.956 E1.45286
G1 X66.246 Y154.729 E1.46030
G1 X66.243 Y154.329 E1.47326
G1 X66.246 Y154.271 E1.47515
G1 X66.634 Y154.309 F9000.000
G1 X66.709 Y153.934 F1500.000 E1.48752
G1 X66.855 Y153.581 E1.49990
G1 X67.067 Y153.263 E1.51227
G1 X67.338 Y152.992 E1.52465
G1 X67.656 Y152.780 E1.53702
G1 X68.009 Y152.634 E1.54939
G1 X68.384 Y152.559 E1.56177
G1 X68.766 Y152.559 E1.57414
G1 X69.141 Y152.634 E1.58652
G1 X69.494 Y152.780 E1.59889
G1 X69.659 Y152.878 E1.60509
G1 X69.954 Y153.121 E1.61747
G1 X70.197 Y153.416 E1.62984
G1 X70.377 Y153.754 E1.64221
G1 X70.488 Y154.120 E1.65459
G1 X70.525 Y154.500 E1.66696
G1 X70.488 Y154.880 E1.67934
G1 X70.377 Y155.246 E1.69171
G1 X70.197 Y155.583 E1.70409
G1 X69.954 Y155.879 E1.71646
G1 X69.658 Y156.122 E1.72884
G1 X69.321 Y156.302 E1.74121
G1 X68.955 Y156.413 E1.75359
G1 X68.575 Y156.450 E1.76596
G1 X68.194 Y156.413 E1.77834
G1 X67.829 Y156.302 E1.79071
G1 X67.492 Y156.122 E1.80308
G1 X67.196 Y155.879 E1.81546
G1 X66.953 Y155.584 E1.82783
G1 X66.773 Y155.246 E1.84021
G1 X66.662 Y154.880 E1.85258
G1 X66.634 Y154.691 E1.85878
G1 X66.631 Y154.367 E1.86927
G1 X66.634 Y154.309 E1.87116
G1 F6000.000 E0.87116
G92 E0
G1 X49.639 Y161.411 F9000.000
G1 F6000.000 E1.00000
G1 X49.639 Y147.589 F1500.000 E1.44737
G1 X71.361 Y147.589 E2.15045
G1 X71.361 Y161.411 E2.59782
G1 X49.698 Y161.411 E3.29901
G1 X49.639 Y161.411 E3.30090
G1 X49.250 Y161.800 F9000.000
G1 X49.250 Y147.200 F1500.000 E3.77347
G1 X71.750 Y147.200 E4.50175
G1 X71.750 Y161.800 E4.97432
G1 X49.308 Y161.800 E5.70071
G1 X49.250 Y161.800 E5.70260
G1 X48.913 Y161.605 F9000.000
G1 F6000.000 E4.70260
G92 E0
G1 X64.408 Y79.227 F9000.000
G1 F6000.000 E1.00000
G1 X64.095 Y79.148 F1500.000 E1.01045
G1 X63.791 Y79.040 E1.02090
G1 X63.499 Y78.901 E1.03135
G1 X63.222 Y78.736 E1.04180
G1 X62.963 Y78.543 E1.05225
G1 X62.724 Y78.326 E1.06270
G1 X62.507 Y78.087 E1.07315
G1 X62.314 Y77.828 E1.08360
G1 X62.148 Y77.551 E1.09405
G1 X62.010 Y77.259 E1.10450
G1 X61.902 Y76.955 E1.11495
G1 X61.823 Y76.642 E1.12540
G1 X61.776 Y76.322 E1.13586
G1 X61.760 Y76.000 E1.14631
G1 X61.776 Y75.678 E1.15676
G1 X61.823 Y75.358 E1.16721
G1 X61.902 Y75.045 E1.17766
G1 X62.010 Y74.741 E1.18811
G1 X62.148 Y74.449 E1.19856
G1 X62.314 Y74.172 E1.20901
G1 X62.507 Y73.913 E1.21946
G1 X62.724 Y73.674 E1.22991
G1 X62.963 Y73.457 E1.24036
G1 X63.222 Y73.264 E1.25081
G1 X63.499 Y73.098 E1.26126
G1 X63.791 Y72.960 E1.27171
G1 X64.095 Y72.852 E1.28216
G1 X64.408 Y72.773 E1.29261
G1 X64.728 Y72.726 E1.30306
G1 X65.050 Y72.710 E1.31351
G1 X65.372 Y72.726 E1.32396
G1 X65.692 Y72.773 E1.33441
G1 X66.005 Y72.852 E1.34486
G1 X66.309 Y72.960 E1.35531
G1 X66.601 Y73.098 E1.36576
G1 X66.878 Y73.264 E1.37622
G1 X67.137 Y73.457 E1.38667
G1 X67.376 Y73.674 E1.39712
G1 X67.593 Y73.913 E1.40757
G1 X67.786 Y74.172 E1.41802
G1 X67.952 Y74.449 E1.42847
G1 X68.090 Y74.741 E1.43892
G1 X68.198 Y75.045 E1.44937
G1 X68.277 Y75.358 E1.45982
G1 X68.324 Y75.678 E1.47027
G1 X68.340 Y76.000 E1.48072
G1 X68.324 Y76.322 E1.49117
G1 X68.277 Y76.642 E1.50162
G1 X68.198 Y76.955 E1.51207
G1 X68.090 Y77.259 E1.52252
G1 X67.952 Y77.551 E1.53297
G1 X67.786 Y77.828 E1.54342
G1 X67.593 Y78.087 E1.55387
G1 X67.376 Y78.326 E1.56432
G1 X67.137 Y78.543 E1.57477
G1 X66.878 Y78.736 E1.58522
G1 X66.601 Y78.902 E1.59567
G1 X66.309 Y79.040 E1.60612
G1 X66.005 Y79.148 E1.61657
G1 X65.692 Y79.227 E1.62703
G1 X65.372 Y79.274 E1.63748
G1 X65.050 Y79.290 E1.64793
G1 X64.728 Y79.274 E1.65838
G1 X64.466 Y79.235 E1.66694
G1 X64.408 Y79.227 E1.66883
G1 X64.484 Y78.845 F9000.000
G1 X64.208 Y78.775 F1500.000 E1.67804
G1 X63.940 Y78.679 E1.68725
G1 X63.683 Y78.558 E1.69646
G1 X63.439 Y78.411 E1.70568
G1 X63.210 Y78.242 E1.71489
G1 X62.999 Y78.051 E1.72410
G1 X62.808 Y77.840 E1.73331
G1 X62.639 Y77.611 E1.74253
G1 X62.492 Y77.367 E1.75174
G1 X62.371 Y77.110 E1.76095
G1 X62.275 Y76.842 E1.77016
G1 X62.205 Y76.566 E1.77938
G1 X62.164 Y76.284 E1.78859
G1 X62.150 Y76.000 E1.79780
G1 X62.164 Y75.716 E1.80701
G1 X62.205 Y75.434 E1.81623
G1 X62.275 Y75.158 E1.82544
G1 X62.371 Y74.890 E1.83465
G1 X62.492 Y74.633 E1.84386
G1 X62.639 Y74.389 E1.85308
G1 X62.808 Y74.160 E1.86229
G1 X62.999 Y73.949 E1.87150
G1 X63.210 Y73.758 E1.88071
G1 X63.439 Y73.589 E1.88993
G1 X63.683 Y73.442 E1.89914
G1 X63.940 Y73.321 E1.90835
G1 X64.208 Y73.225 E1.91756
G1 X64.484 Y73.155 E1.92677
G1 X64.766 Y73.114 E1.93599
G1 X65.050 Y73.100 E1.94520
G1 X65.334 Y73.114 E1.95441
G1 X65.616 Y73.155 E1.96362
G1 X65.892 Y73.225 E1.97284
G1 X66.160 Y73.321 E1.98205
G1 X66.417 Y73.442 E1.99126
G1 X66.661 Y73.589 E2.00047
G1 X66.890 Y73.758 E2.00969
G1 X67.101 Y73.949 E2.01890
G1 X67.292 Y74.160 E2.02811
G1 X67.461 Y74.389 E2.03732
G1 X67.608 Y74.633 E2.04654
G1 X67.729 Y74.890 E2.05575
G1 X67.825 Y75.158 E2.06496
G1 X67.895 Y75.434 E2.07417
G1 X67.936 Y75.716 E2.08339
G1 X67.950 Y76.000 E2.09260
G1 X67.936 Y76.284 E2.10181
G1 X67.895 Y76.566 E2.11102
G1 X67.825 Y76.842 E2.12024
G1 X67.729 Y77.110 E2.12945
G1 X67.608 Y77.367 E2.13866
G1 X67.461 Y77.611 E2.14787
G1 X67.292 Y77.840 E2.15709
G1 X67.101 Y78.051 E2.16630
G1 X66.890 Y78.242 E2.17551
G1 X66.661 Y78.411 E2.18472
G1 X66.417 Y78.558 E2.19394
G1 X66.160 Y78.679 E2.20315
G1 X65.892 Y78.775 E2.21236
G1 X65.616 Y78.845 E2.22157
G1 X65.334 Y78.886 E2.23079
G1 X65.050 Y78.900 E2.24000
G1 X64.542 Y78.853 E2.25651
G1 X64.484 Y78.845 E2.25840
G1 F6000.000 E1.25840
G92 E0
G1 X56.814 Y92.089 F9000.000
G1 F6000.000 E1.00000
G1 X60.269 Y93.927 F1500.000 E1.12667
G1 X60.405 Y97.838 E1.25335
G1 X57.086 Y99.911 E1.38002
G1 X53.631 Y98.073 E1.50670
G1 X53.495 Y94.162 E1.63337
G1 X56.765 Y92.120 E1.75816
G1 X56.814 Y92.089 E1.76005
G1 X56.830 Y92.538 F9000.000
G1 X59.888 Y94.165 F1500.000 E1.87217
G1 X60.008 Y97.627 E1.98430
G1 X57.070 Y99.462 E2.09643
G1 X54.012 Y97.835 E2.20855
G1 X53.892 Y94.373 E2.32068
G1 X56.780 Y92.569 E2.43091
G1 X56.830 Y92.538 E2.43280
G1 F6000.000 E1.43280
G92 E0
G1 X62.010 Y94.741 F9000.000
G1 F6000.000 E1.00000
G1 X62.148 Y94.449 F1500.000 E1.01045
G1 X62.314 Y94.172 E1.02090
G1 X62.507 Y93.913 E1.03135
G1 X62.724 Y93.674 E1.04180
G1 X62.963 Y93.457 E1.05225
G1 X63.222 Y93.264 E1.06270
G1 X63.499 Y93.098 E1.07315
G1 X63.791 Y92.960 E1.08360
G1 X64.095 Y92.852 E1.09405
G1 X64.408 Y92.773 E1.10450
G1 X64.728 Y92.726 E1.11495
G1 X65.050 Y92.710 E1.12541
G1 X65.372 Y92.726 E1.13586
G1 X65.692 Y92.773 E1.14631
G1 X66.005 Y92.852 E1.15676
